src/assets/svg/facebook.svg

<svg width="80" height="80" viewBox="0 0 80 80" fill="none" xmlns="http://www.w3.org/2000/svg">
<g style="mix-blend-mode:luminosity" opacity="0.7">
<path d="M53.9355 43.3103L55.5871 32.2759H45.6774V24.5517C45.6774 21.4621 46.7097 19.0345 51.2516 19.0345H56V8.88276C53.3161 8.44138 50.4258 8 47.7419 8C39.2774 8 33.2903 13.5172 33.2903 23.4483V32.2759H24V43.3103H33.2903V71.3379C35.3548 71.7793 37.4194 72 39.4839 72C41.5484 72 43.6129 71.7793 45.6774 71.3379V43.3103H53.9355Z" fill="#046EE5"/>
</g>
</svg>

<svg xmlns="http://www.w3.org/2000/svg" width="80" height="80" fill="none"><path fill="#046EE5" d="m53.935 43.31 1.652-11.034h-9.91v-7.724c0-3.09 1.033-5.517 5.575-5.517H56V8.883C53.316 8.44 50.426 8 47.742 8 39.277 8 33.29 13.517 33.29 23.448v8.828H24V43.31h9.29v28.028c2.065.441 4.13.662 6.194.662s4.129-.22 6.193-.662V43.31h8.258Z" opacity=".7" style="mix-blend-mode:luminosity"/></svg>
